X:1
T:Home, Sweet Home
T: Sir Henry Rowley Bishop (1786-1855)
T:John Howard Payne (1791-1852)
T:Public Domain, from Clari, the Maid of Milan (1823).
T:Public Domain, from Clari, the Maid of Milan (1823).
C:Sir Henry Rowley Bishop (1786-1855)
Z:John Howard Payne (1791-1852)
Z:Public Domain, from Clari, the Maid of Milan (1823).
L:1/8
Q:1/4=120
M:4/4
K:Eb
V:1 treble nm="Piano" snm="Pno."
V:1
"^Intro" B2 |"Eb" e3 d"Ab" c3 B |"Gm" B4"Cm" G2 B2 |"Cm" A3 G"Bb7" A2 F2 |"Eb" E6"^Verse" (E>F) | %5
w: ||||* 1.~'Mid _|
w: ||||* 2.~An _|
"Eb" (G3 A)"Ab" A3 B |"Eb" B3 G (G2 B2) |"Eb" (A3 G)"Bb7" A2 F2 |"Eb" G4 z2 E>F | %9
w: pleas- * ures and|pal- a- ces _|though _ we may|roam, Be it|
w: ex- * ile from|home, splen- dor _|daz- * zles in|vain, Oh _|
"Eb" (G3 A)"Ab" A3 B |"Eb" B4 G2 B2 |"Fm" (A3 G)"Bb7" A2 F2 |"Eb" E4 z2 B2 |"Eb" (e3 d)"Ab" c3 B | %14
w: ev- * er so|hum- ble there's|no _ place like|home. A|charm _ from the|
w: give _ me my|low- ly thatch'd|cot- * tage a-|gain. The|birds _ sing- ing|
"Bb7" B4"Eb" G2 B2 |"Fm" (A3 G)"Bb7" A2 F2 |"Eb" G4 z2 BB |"Cm" (e3 d)"Ab" c3 B |"Gm" B4 G2 B2 | %19
w: skies seems to|hal- * low us|there, Which, _|seek _ thro' the|world is ne'er|
w: gai- ly that|came _ at my|call, Give me|them _ and that|peace of mind|
"Fm" B2 A2-"Bb7" A2 F2 |"Eb" E6 z2 |"Eb""^Chorus" B8 |"Bb7" (A4 F4) |"Cm" E2 z2"Fm" F2 z2 | %24
w: met with * else-|where.|Home,|Home, _|Sweet sweet|
w: dear- er * than|all.||||
"Gm" G4"Ab" z2 B2 |"Eb" (e3 d)"Ab" c3 B |"Gm" B4"Cm" G2 B2 |"Cm" (A3 G)"Bb7" A2 F2 |"Eb" E6 |] %29
w: home. There's|no _ place like|home, Oh, there's|no _ place like|home.|
w: |||||

